X:142
T:Dusty Rose
C:Norman Blake
N:Transcribed by Mark Dixon Transcribed by Mike Stangeland
R:bluegrass
L:1/8
Q:1/4=200
M:4/4
K:C
z6 cd |: e"Sequence - AABBC""Am"a g"."d e2 cd | "G"ed cB "Am"A2 EG | "Am"AB cd "C"eg ec | 
"G"cd de d2 cd | "Am"ea gd e2 cd | "G"ed cB "Am"A2 EG | AB c"G"d eg ec |1 A6 cd :|2 A8 | 
|: "Am"AG Ac AG E2 | "Cm"^DC DG "Am"E2 [A2E2] | "Cm"^DC DG "Am"EG BG | "A"A2 [^c6A6E6A,6] | 
e^c e2 [g2e2] [g2e2] | ed cB A4 | "C#m"^c^G c^f ec BG | "A"A8 :| "G"[gBG]f ed "C"[c4G4E4] | 
"Dm"ag fe d4 | "C"CE Gc AG CD | [G2E2] [G2E2] "G"[G2D2] [G2D2] | "Am"ed cB A2 Bc | 
"E7"dE ^GB "Am"A2 A2 | "F"FG AB cd cd | "E7"e2 [^g2e2] [g2e2] cd | 


